X:1
T:James Gibb editions
T:Ecce enim evangelizo - Ingegneri
T:#
%%score [ 1 2 3 4 ]
L:1/8
Q:1/4=100
M:4/4
K:G
V:1 treble-8 nm="Tenor I" snm="T I"
V:2 treble-8 nm="Tenor II" snm="T II"
V:3 bass nm="Bass I" snm="B I"
V:4 bass nm="Bass II" snm="B II"
V:1
"^Ecce enim evangelizo""^Marco Antonio Ingegneri\n(1547-92)" z8 | z4 c4- | c2 c2 B4 | A2 e2 e2 e2 | %4
w: |Ec\-|* ce e-|nim e- van- ge-|
 g2 d2 (efgf |[M:4/4][K:treble-8] ed e3 d dc/B/ | c4) B4- | B4 z4 | e2 e2 e2 g2- | g2 d2 =f4 | %10
w: li- zo vo\- * * *||* bis,||e- van- ge- li\-|* zo vo-|
 e4 e2 e2 | e2 g2 d2 (=fe/d/ | c3 d e4) | e4 e4 | d2 c2 B4 | B4 z4 | z2 (A3 B cd | efge fg a2) | %18
w: bis, e- van-|ge- li- zo vo\- * *||bis, gau-|di- um ma-|gnum,|gau\- * * *||
 g2 e2 g4 | g4 g4 | d2 =f2 (e3 d | c3 B/A/ c2) B2 | A2 e4 d2 | c2 c2 (B3 A | G2) F2 E2 G2- | %25
w: di- um ma-|gnum, gau-|di- um ma\- *|* * * * gnum,|quod e- rit|o- mni po\- *|* pu- lo: qui\-|
 G2 G2 A2 B2 | c2 e4 B2 | g3 f e2 B2 | (cdef g3 f | ed/c/ d2) e2 g2 | =f4 e2 c2- | c2 B2 (e3 d | %32
w: * a na- tus|est vo- bis|ho- di- e Sal-|va\- * * * * *|* * * * tor, Sal-|va- tor, qui|* est Chri\- *|
 c2) B2 A3 A | G4 z4 | z8 | z4 z2 A2- | A2 G2 (EFGF | GA B2) E2 G2- | G2 F2 G4 | z2 g2 e2 c2 | %40
w: * stus Do- mi-|nus,||qui|* est Chri\- * * *|* * * stus Do\-|* mi- nus,|in ci- vi-|
 d2 e2 =f4 ||[M:3/4] e4 z2 | e4 e2 | d4 c2 |[M:3/4][K:treble-8] =f4 e2 | g4 g2 | g4 e2 | d6 || %48
w: ta- te Da-|vid.|Et hoc|vo- bis|si- gnum,|et hoc|vo- bis|si-|
[M:4/4] B2 c2 c2 d2 | e4 c2 d2 |[M:4/4][K:treble-8] (GABc d4) | A4 z4 | z4 d4 | c2 A2 B2 (c2- | %54
w: gnum, in- ve- ni-|e- tis in-|fan\- * * * *|tem|pa-|nis in- vo- lu\-|
 cBAG A2) G2 | E2 E2 F2 G2- | G2 F2 A4 | e4 e2 a2- | a2 g2 e2 f2 | (g3 f e2) d2 ||[M:3/4] x6 | %61
w: * * * * * tum,|in- ve- ni- e\-|* tis in-|fan- tem pa\-|* nis in- vo-|lu\- * * tum,||
[M:3/4][K:treble-8] z2 z2 c2 | d3 e d2 | d4 c2 | B4 B2 | A2 e4 | %66
w: et|po- si- tum|in prae-|se- pi-|o, et|
[Q:1/4=98] g3[Q:1/4=97] g[Q:1/4=96] g2 |[Q:1/4=94] =f4[Q:1/4=92] e2 |[Q:1/4=90] e4[Q:1/4=89] e2 | %69
w: pò- si- tum|in prae-|se- Pi-|
[Q:1/4=86] !fermata!e6 |] %70
w: o.|
V:2
 c6 c2 | B4 A2 e2 | e2 e2 g2 d2 | (edcB AG A2) | E2 G2 c2 c2 |[M:4/4][K:treble-8] (G3 A B2) F2 | %6
w: Ec- ce|e- nim e-|van- ge- li- zo|vo\- * * * * * *|bis, e- van- ge-|li\- * * zo|
 A4 B2 e2- | e2 e2 d4 | c4 z2 B2- | B2 B2 A4- | A4 G4- | G4 z2 A2 | A2 A2 c2 G2 | c4 B4 | %14
w: vo- bis, Ec\-|* ce e-|nim Ec\-|* ce e\-|* nim|* e-|van- ge- li- zo|vo- bis,|
 z2 e2 e2 e2 | g4 d4 | (e3 d cB A2- | A2) G2 z2 (E2- | EFGA BcdB | cd e4) c2 | B2 (d3 c/B/ cd | %21
w: e- van- ge-|li- zo|vo\- * * * *|* bis, gau\-||* * * di-|um ma\- * * * *|
 e4 e4- | e4 z4 | e2 a4 g2 | e2 f2 g4- | g4 =f4 | e4 z4 | z8 | G6 G2 | A2 B2 c2 e2- | e2 d2 g4- | %31
w: * gnum,||quod e- rit|o- mni po\-|* pu-|lo:||qui- a|na- tus est vo\-|* bis ho\-|
 g2 g2 g2 e2 | e4 e2 c2- | c2 B2 e3 d | c2) B2 (AGAB | cd e4) d2 | e4 z2 d2 | B2 G2 A2 B2 | c4 B4 | %39
w: * di- e Sal-|va- tor, qui|* est Chri\- *|* stus Do\- * * *|* * * mi-|nus, in|ci- vi- ta- te|Da- vid.|
 z8 | z8 ||[M:3/4] z6 | g4 g2 | g4 e2 |[M:3/4][K:treble-8] d4 B2 | e4 e2 | d4 c2 | =f6 || %48
w: |||Et hoc|vo- bis|si- gnum,|et hoc|vo- bis|si-|
[M:4/4] e4 z4 | z2 e2 e2 f2 |[M:4/4][K:treble-8] g4 f2 f2 | e4 e4 | z2 a4 g2 | e2 f2 (g3 f | %54
w: gnum,|in- ve- ni-|e- tis in-|fan- tem|pa- nis|in- vo- lu\- *|
 ed e3 c d2) | e4 z4 | z8 | z8 | d4 c2 A2 | B2 c4 B2 ||[M:3/4] x6 |[M:3/4][K:treble-8] e6 | %62
w: |tum,|||pa- nis in-|vo- lu- tum,||et|
 g3 g g2 | =f4 e2 | e4 e2 | e2 c4 | d3 e d2 | d4 c2 | B4 B2 | !fermata!^c6 |] %70
w: po- si- tum|in prae-|se- pi-|o, et|pò- si- tum|in prae-|se- Pi-|o.|
V:3
 z8 | z8 | z8 | C6 C2 | B,4 A,2 E,2 |[M:4/4] E,2 E,2 G,2 D,2 | (E,-D,E,F, G,3 F,/E,/ | %7
w: |||Ec- ce|e- nim e-|van- ge- li- zo|vo\- * * * * * *|
 G,E,F,A, B,G, A,2- | A,B, C2) G,4 | z2 D4 D2 | C4 B,4 | B,2 B,2 B,2 D2 | A,2 (CB,/A,/ G,>A, B,2) | %13
w: |* * * bis,|Ec- ce|e- nim|e- van- ge- li-|zo vo\- * * * * *|
 A,2 (G,3 A, B,G, | A,2) A,2 E,2 (E,2 | E,F,G,A, B,CDB, | CB,CD E3 D | C2) B,2 D2 C2- | C2 C2 D4 | %19
w: bis, gau\- * * *|* di- um, gau\-|||* di- um, gau\-|* di- um|
 (E3 D C2) G,2 | z4 z2 E,2- | E,2 A,4 G,2 | C2 A,2 B,2 B,2 | A,4 z2 B,2 | B,4 B,2 C2- | %25
w: ma\- * * gnum,|quod|* e- rit|o- mni po- pu-|lo: quod|e- rit o\-|
 C2 B,2 D3 D | G,4 B,4- | B,2 B,2 C2 D2 | E2 C4 B,2 | z2 G,4 G,2 | A,2 B,2 C2 E2- | E2 D2 C3 B, | %32
w: * mni po- pu-|lo: qui\-|* a na- tus|est vo- bis|qui- a|na- tus est vo\-|* bis ho- di-|
 A,2 G,2 (CDEC | D4 C2 A,2- | A,2 G,2 (C3 B, | A,2) G,2 =F,3 F, | E,4 z4 | z8 | z4 D4 | %39
w: e Sal- va\- * * *|* tor, qui|* est Chri\- *|* stus Do- mi-|nus,||in|
 B,2 G,2 A,4 | B,2 C3 B,/A,/ B,2) ||[M:3/4] C4 z2 | C4 C2 | B,4 C2 |[M:3/4] A,4 G,2 | C4 C2 | %46
w: ci- vi- ta-|te Da\- * * *|vid.|Et hoc|vo- bis|si- gnum,|et hoc|
 B,4 C2 | A,6 ||[M:4/4] G,2 A,2 A,2 B,2 | C2 G,2 G,2 (B,2- |[M:4/4] B,A, G,2) A,2 D2- | %51
w: vo- bis|si-|gnum, in- ve- ni-|e- tis in- fan\-|* * * tem pa\-|
 D2 C2 A,2 B,2 | C4 B,4 | z8 | z2 C4 B,2 | G,2 A,2 B,4 | A,2 D4 C2 | A,2 B,2 C4 | B,4 z4 | z8 || %60
w: * nis in- vo-|lu- tum,||pa- nis|in- vo- lu-|tum, pa- nis|in- vo- lu-|tum,||
[M:3/4] x6 |[M:3/4] C6 | B,3 C B,2 | A,4 A,2 | ^G,4 G,2 | A,4 C2 | B,3 C B,2 | A,4 G,2 | ^G,4 G,2 | %69
w: |et|po- si- tum|in prae-|se- pi-|o, et|pò- si- tum|in prae-|se- Pi-|
 !fermata!A,6 |] %70
w: o.|
V:4
 z8 | z8 | z8 | z8 | z4 z2 C,2- |[M:4/4] C,2 C,2 B,,4 | A,,4 E,4 | E,2 E,2 G,2 D,2 | %8
w: ||||Ec\-|* ce e-|nim e-|van- ge- li- zo|
 (A,,G,,A,,B,, C,D,E,D, | E,F, G,2) D,4 | z4 E,4 | E,2 E,2 G,2 D,2 | =F,4 E,4 | %13
w: vo\- * * * * * * *|* * * bis,|e-|van- ge- li- zo|vo- bis,|
 (A,,B,,C,D, E,F,G,E, | F,G, A,4) G,2 | E,4 G,4 | C,2 (A,,3 G,, A,,B,, | C,D, E,2) B,,2 A,,2 | %18
w: gau\- * * * * * * *|* * * di-|um ma-|gnum, gau\- * * *|* * * di- um|
 C,4 G,,4 | (C,3 B,, C,D,E,F, | G,2) D,2 A,2 (A,,2- | A,,B,,C,D, E,4) | A,,4 z4 | A,,4 E,4- | %24
w: ma- gnum,|gau\- * * * * *|* di- um ma\-||gnum,|quod e\-|
 E,2 D,2 G,2 C,2 | E,4 D,4 | C,4 G,4- | G,2 E,2 A,2 G,2 | C,4 (E,3 D, | C,2) G,,2 C,3 B,, | %30
w: * rit o- mni|po- pu-|lo: qui\-|* a na- tus|est vo\- *|* bis ho- di-|
 A,,2 D,2 (C,3 D, | E,F, G,2) C,4 | z8 | z8 | z8 | z8 | z2 C,4 B,,2 | (E,3 D, C,2) B,,2 | %38
w: e Sal- va\- *|* * * tor,|||||qui est|Chri\- * * stus|
 A,,3 A,, G,,2 G,2- | G,2 E,2 C,2 =F,2- | F,2 E,2 D,4 ||[M:3/4] C,4 z2 | C,4 C,2 | G,4 A,2 | %44
w: Do- mi- nus, in|* ci- vi- ta\-|* te Da-|vid.|Et hoc|vo- bis|
[M:3/4] D,4 E,2 | C,4 C,2 | G,4 A,2 | D,6 ||[M:4/4] E,2 C,2 A,,2 G,,2 | C,4 C,2 B,,2 | %50
w: si- gnum,|et hoc|vo- bis|si-|gnum, in- ve- ni-|e- tis in-|
[M:4/4] E,4 D,4 | z2 A,4 G,2 | E,2 F,2 G,4 | (A,4 E,4) | z2 A,,2 A,,2 B,,2 | C,4 B,,2 G,,2 | %56
w: fan- tem|pa- nis|in- vo- lu-|tum, *|in- ve- ni-|e- tis in-|
 D,4 A,,2 A,2- | A,2 G,2 E,2 F,2 | (G,4 A,4) | E,4 z4 ||[M:3/4] x6 |[M:3/4] A,6 | G,3 C, G,2 | %63
w: fan- tem pa\-|* nis in- vo-|lu\- *|tum,||et|po- si- tum|
 D,4 A,,2 | E,4 E,2 | A,,4 A,2 | G,3 C, G,2 | D,4 A,,2 | E,4 E,2 | !fermata!A,,6 |] %70
w: in prae-|se- Pi-|o, et|pò- si- tum|in prae-|se- Pi-|o.|

